book-outline.svg

<svg fill="currentColor" viewBox="0 0 24 24"><path d="M18 2a2 2 0 0 1 2 2v16a2 2 0 0 1-2 2H6a2 2 0 0 1-2-2V4a2 2 0 0 1 2-2zm0 2h-5v8l-2.5-2.25L8 12V4H6v16h12z"/></svg>

<svg  viewBox="0 0 24 24" fill="currentColor"><path  d="M18,2A2,2 0 0,1 20,4V20A2,2 0 0,1 18,22H6A2,2 0 0,1 4,20V4A2,2 0 0,1 6,2H18M18,4H13V12L10.5,9.75L8,12V4H6V20H18V4Z"/></svg>
